!!!OTL: Caoine na maighdine, S. 110
!!!id: I0548
**kern
*clefG2
*k[]
*C:
{8c
=1
8c
4cc
8cc
=2yy
8cc
=3
4g
8g
8g
=4
4a
8g
8e
=5
4f
4g
=6
4a
4e
=7
4f
8g
8g
=8
4cc
4cc
=9
4.cc}
=10
{8g
=11
4cc
8cc
8cc
=12
4g
4g
=13
4a
8g
8e
=14
4f
4g
=15
4a
4e
=16
4f
8g
8g
=17
4cc
4cc
=18
2cc}
==
*-
!!!minrhy: 8
!!!meters: 2/4 ]  ZZ[2
!!!cut: Caoine na maighdine, S. 110
!!!reg: Irland
!!!trd: O'SULLIVAN, Donal: Song of the Irish
!!!rhy1:   X_XX  X_XX  X_XX  X_X_  X_X_  X_XX  X_X_  X_.
!!!rhy2: X  X_XX  X_X_  X_XX  X_X_  X_X_  X_XX  X_X_  X__ // 
!!!key: I0548  08  C 2/4 ]  ZZ[2
!!!mod: PENTATONIK ]  AMBITUS[6b
!!!kad: +1+1
!!!akz: +156464+1+1_+156464+1+1_
!!!fot: 'a__av_
!!!for: 'a__b__
!!!fok: 'V__~a_
!! PHRAS[GEMISCHTTAKTIG]
!!!fkt: religiöses Lied, Klagelied
!! IRISCHE V
!! PR[10] 2K[8] 2G[18] 3K[4] 3G[1] 4A[7] 4Ü[0] 5A[0] 6K[1] 6G[0]
!! 7K[0] 7G[0] 8A[0] MEHR[0] SI[40] ABS[96] SR[26] SP[14]
!! ST[16] 2k[15] 2g[25] 3k[6] 3g[4] 4d[0] 4ü[0] 5d[0] 6k[0] 6g[0]
!! 7k[0] 7g[0] 8d[0] mehr[0] si[50] dm[-10] sr[40] sp[10]
!! 1F[6] 2F[60] 3F[27] 4F[0] LF[0] 2P[4] 3P[3] 4P[0] TRI[0] DF[5] AB[97]
!! TF[0] U3K[0] U3[0] U4[0] U4Ü[0] U5[2] U6K[0] U6[3] U7K[0] U7[1]
!! N1[12] N2K[0] N2[7] N3K[0] N3[14] N4[10] N4Ü[0] N5[11] N6K[0] N6[12]
!!!n7k: 0] N7[10] O1[13] O2K[0] O2[2] O3K[0] O3[0] HÖ[0
